images/trash-icon-transp.svg

<?xml version="1.0" encoding="utf-8"?>
<svg width="18px" height="20px" viewBox="0 0 18 20" version="1.1" xmlns:xlink="http://www.w3.org/1999/xlink" xmlns="http://www.w3.org/2000/svg">
  <desc>Created with Lunacy</desc>
  <defs>
    <path d="M0 0L18 0L18 20L0 20L0 0Z" id="path_1" />
    <clipPath id="mask_1">
      <use xlink:href="#path_1" />
    </clipPath>
  </defs>
  <g id="trash-icon" opacity="0.4">
    <path d="M0 0L18 0L18 20L0 20L0 0Z" id="Background" fill="none" stroke="none" />
    <g clip-path="url(#mask_1)">
      <path d="M1.17833 12.3521C1.23927 13.0225 1.78781 13.5101 2.45824 13.5101L12.9819 13.5101C13.6524 13.5101 14.2009 13.0022 14.2618 12.3521L15.4402 0L0 0L1.17833 12.3521L1.17833 12.3521Z" transform="translate(1.279297 5.7901)" id="Shape" fill="#FFFFFF" stroke="none" />
      <path d="M16.7201 1.93002L11.5801 1.93002L11.5801 1.27991C11.5801 0.568849 11.0113 0 10.3002 0L7.72009 0C7.00903 0 6.44018 0.568849 6.44018 1.27991L6.44018 1.93002L1.27991 1.93002C0.568849 1.93002 0 2.49887 0 3.20993C0 3.92099 0.568849 4.48984 1.27991 4.48984L16.7201 4.48984C17.4312 4.48984 18 3.92099 18 3.20993C18 2.49887 17.4312 1.93002 16.7201 1.93002L16.7201 1.93002Z" id="Shape" fill="#FFFFFF" stroke="none" />
    </g>
  </g>
</svg>

<svg width="18" height="20" xmlns:xlink="http://www.w3.org/1999/xlink" xmlns="http://www.w3.org/2000/svg"><defs><clipPath id="b"><use xlink:href="#a"/></clipPath><path d="M0 0h18v20H0V0z" id="a"/></defs><g opacity=".4"><path d="M0 0h18v20H0V0z" fill="none"/><g clip-path="url(#b)" fill="#FFF"><path d="M2.458 18.142c.06.67.61 1.158 1.28 1.158H14.26c.67 0 1.22-.508 1.28-1.158L16.72 5.79H1.28l1.179 12.352zM16.72 1.93h-5.14v-.65C11.58.569 11.011 0 10.3 0H7.72c-.71 0-1.28.569-1.28 1.28v.65H1.28C.569 1.93 0 2.499 0 3.21c0 .711.569 1.28 1.28 1.28h15.44c.711 0 1.28-.569 1.28-1.28 0-.711-.569-1.28-1.28-1.28z"/></g></g></svg>
